!!!COM: Beethoven, Ludwig van
!!!CDT: 1770///-1827///
!!!OTL: Piano Sonata no. 27 in E minor
!!!ODT: 1814///
!!!ODE: au Comte Lichnowsky
!!!OPS: 90
!!!OMV: 2
!!!OMD: Rondo: Non troppo presto e molto cantabile
**kern	**kern	**dynam
*staff2	*staff1	*staff1/2
*Ipiano	*Ipiano	*Ipiano
*clefF4	*clefG2	*
*k[f#c#g#d#]	*k[f#c#g#d#]	*
*E:	*E:	*
*M2/4	*M2/4	*M2/4
*MM90	*MM90	*MM90
!	!LO:TX:b:i:t=dolce	!
8r	(>16eLL	p
.	16f#JJ	.
=1	=1	=1
*	*^	*
8EE 8E	4g#	16eLL	.
.	.	16B	.
8r	.	16e	.
.	.	16BJJ	.
4r	8bL	16g#LL	.
.	.	16B	.
.	8aJ	16f#	.
.	.	16BJJ	.
=2	=2	=2	=2
8BBB 8BB	8g#L	16eLL	.
.	.	16B	.
8r	8f#J)	16d#	.
.	.	16BJJ	.
4r	(8f#'L	16d#LL	.
.	.	16B	.
.	8g#'J)	16e	.
.	.	16BJJ	.
=3	=3	=3	=3
8CC# 8C#	(8aL	16eLL	.
.	.	16B	.
8r	8cc#J	16e	.
.	.	16BJJ	.
8DD# 8D#L	8bL	16f#LL	.
.	.	16B	.
8BBB 8BBJ	8f#J	16d#	.
.	.	16BJJ	.
*	*v	*v	*
=4	=4	=4
16EE 16ELL<	4B 4e 4g#)	.
16G#	.	.
16B	.	.
16AJJ	.	.
16G#LL	8r	.
16A	.	.
16G#	(16eeLL	.
16F#JJ	16ff#JJ	.
=5	=5	=5
16ELL	4g# 4gg#	.
16B	.	.
16BB	.	.
16BJJ	.	.
16ELL	8b 8bbL	.
16B	.	.
16BB	8a 8aaJ	.
16BJJ	.	.
!!LO:LB:g=z
=6	=6	=6
16D#LL	8g# 8gg#L	.
16B	.	.
16BB	8f# 8ff#J)	.
16BJJ	.	.
16D#LL	8f#' (8ff#'L	.
16B	.	.
16E#	8g#' 8gg#'J)	.
16BJJ	.	.
=7	=7	=7
16F#LL	8a (8aaL	<
16B	.	.
16A	8cc# 8ccc#	.
16BJJ	.	.
16G#LL	8b 8bbJ)	.
16B	.	.
16BB 16F#	8dd#' 8ddd#'	p
16AJJ	.	.
=8	=8	=8
!	!LO:TX:i:b:t=legato	!
16E 16G#LL	4ee' 4eee'	.
16B	.	.
16G#	.	.
16EJJ	.	.
16D#LL	8r	.
16B	.	.
16F#	(8b	.
16D#JJ	.	.
=9	=9	=9
*ped	*	*
16C#LL	4a#\	.
16A#	.	.
16F#	.	.
16C#JJ	.	.
16FF#LL	4ee	.
16A#	.	.
16F#	.	.
*Xped	*	*
16C#JJ	.	.
=10	=10	=10
16BBLL	4.dd#)	.
16B	.	.
16F#	.	.
16D#JJ	.	.
16BBLL	.	.
16B	.	.
16C#	(>8an	.
16AnJJ	.	.
!!LO:LB:g=z
=11	=11	=11
*ped	*	*
16BBLL	4g#	.
16G#	.	.
16E	.	.
16BBJJ	.	.
16EELL<	4ddn	.
16G#	.	.
16E	.	.
*Xped	*	*
16BBJJ	.	.
=12	=12	=12
16AALL	4.cc#)	.
16A	.	.
16E	.	.
16C#JJ	.	.
16AALL<	.	.
16E	.	.
16AA	(8cc#	<
16EJJ	.	.
=13	=13	=13
16GG#LL<	8b#L	.
16E	.	.
16AA	8cc#J)	.
16EJJ	.	.
16AALL<	(8c#' 8e' 8a'L	.
16E	.	.
16BB	8Bn') 8e' 8g#'J	.
16EJJ	.	.
=14	=14	=14
*	*^	*
16C#LL	(8g#	4A# 4e	.
16E	.	.	.
16C#	4f#)	.	.
16EJJ	.	.	.
16CnLL	.	4An 4e	.
16E	.	.	.
16C	(8f#	.	.
16EJJ	.	.	.
=15	=15	=15	=15
!	!	!	!LO:DY:rj
16BBLL	8f#L	8A 8d#	p
16F#	.	.	.
16BB	8bn	4d#	.
16F# 16AJJ	.	.	.
16BBLL	8a#	.	.
16F# 16A	.	.	.
16BB	8bJ	8d#	.
16F# 16AJJ	.	.	.
*	*v	*v	*
!!LO:LB:g=z
=16	=16	=16
16E 16G#LL	4e)	.
16B	.	.
16G#	.	.
16EJJ	.	.
16D#LL	8r	.
16B	.	.
16F#	8b (8bb	.
16D#JJ	.	.
=17	=17	=17
*ped	*	*
16C#LL	4a# 4aa#	.
16A#	.	.
16F#	.	.
16C#JJ	.	.
16FF#LL	4ee 4eee	.
16A#	.	.
16F#	.	.
*Xped	*	*
16C#JJ	.	.
=18	=18	=18
16BBLL	4.dd# 4.ddd#)	.
16B	.	.
16F#	.	.
16D#JJ	.	.
16BBLL	.	.
16B	.	.
16C#	8an (8aan	.
16AnJJ	.	.
=19	=19	=19
*ped	*	*
16BBLL	4g# 4gg#	.
16G#	.	.
16E	.	.
16BBJJ	.	.
16EELL<	4ddn 4dddn	.
16G#	.	.
16E	.	.
*Xped	*	*
16BBJJ	.	.
=20	=20	=20
16AALL	4.cc# 4.ccc#)	.
16A	.	.
16E	.	.
16C#JJ	.	.
16AALL<	.	.
16E	.	<
16AA	8cc# (8ccc#	.
16EJJ	.	.
!!LO:LB:g=z
=21	=21	=21
16GG#LL<	8b# 8bb#L	.
16E	.	.
16AA	8cc# 8ccc#)	.
16EJJ	.	.
16AA 16C#LL	8a' (8aa'	.
16E	.	.
16BB 16E	8g#' 8gg#'J)	.
16G#JJ	.	.
=22	=22	=22
16C# 16ELL	8g# (8gg#	.
16A#	.	.
16C# 16E	4f# 4ff#)	.
16A#JJ	.	.
16Cn 16ELL	.	.
16An	.	.
16C 16E	8f# (8ff#	.
16AJJ	.	.
=23	=23	=23
16BB 16D#LL	8f# 8ff#L	p
16A	.	.
16BB 16D#	8b 8bb	.
16AJJ	.	.
16BB 16D#LL	8a# 8aa#	.
16A	.	.
16BB 16D#	8b 8bbJ	.
16AJJ	.	.
=24	=24	=24
16E 16G#LL	4e\ 4ee\)	.
16E	.	.
16D#	.	.
16C#JJ	.	.
16BBLL	8r	.
16AA	.	.
!	!LO:TX:a:i:t=teneramente	!
16GG#	(>16eLL	.
16FF#JJ	16f#JJ	.
=25	=25	=25
*	*^	*
8EE'	4g#	16eLL	.
.	.	16B	.
8r	.	16e	.
.	.	16BJJ	.
4r	8bL	16g#LL	.
.	.	16B	.
.	8aJ	16f#	.
.	.	16BJJ	.
!!LO:LB:g=z
=26	=26	=26	=26
8BBB	8g#L	16eLL	.
.	.	16B	.
8r	8f#J)	16d#	.
.	.	16BJJ	.
4r	(8f#'L	16d#LL	.
.	.	16B	.
.	8g#'J)	16e	.
.	.	16BJJ	.
=27	=27	=27	=27
8CC#	(8aL	16eLL	.
.	.	16B	.
8r	8cc#J	16e	.
.	.	16BJJ	.
8DD#L	8bL	16f#LL	.
.	.	16B	.
8BBBJ	8f#J)	16d#	.
.	.	16BJJ	.
*	*v	*v	*
=28	=28	=28
8EE	8B 8e 8g#	.
*clefG2	*	*
16eLL	8r	.
16BJJ	.	.
.	(8ff#q	.
16eLL	(16eeLL)	<
16B	16dd#	.
16e	16ee	.
16BJJ	16ff#JJ	.
=29	=29	=29
.	(8aaq	.
16eLL	16gg#LL)	.
16B	16ff#	.
16e	16gg#	.
16BJJ	16aaJJ	.
16g#LL	8b 8bbL	>
16B	.	.
16f#	8a 8aaJ	]
16BJJ	.	.
=30	=30	=30
16eLL	8g# 8gg#L	<
16B	.	.
16d#	8f# 8ff#J)	.
16BJJ	.	.
16d#LL	8f#' (8ff#'L	.
16B	.	.
16e#	8g#' 8gg#'J)	.
16BJJ	.	.
!!LO:LB:g=z
=31	=31	=31
16f#LL	8a (8aaL	.
16B	.	.
16a	8cc# 8ccc#	.
16BJJ	.	.
16g#LL	8b 8bbJ)	.
16B	.	.
16f#	8dd#' 8aa' 8ddd#'	f
16BJJ	.	.
*clefF4	*	*
=32	=32	=32
16eLL	4ee 4gg# 4eee	.
16B	.	.
16G#	.	.
16BJJ	.	.
8E	8r	.
8r	8e' 8g#'	.
=33	=33	=33
16c#LL	4.e 4.g#	sf
16G#	.	.
16E	.	.
16G#JJ	.	.
8C#\	.	.
!	!	!LO:DY:rj
8c#'	8e' 8g#' 8ee'	p
=34	=34	=34
16B#LL	4.d# 4.f# 4.g# 4.dd#	.
16G#	.	.
16D#	.	.
16G#JJ	.	.
8BB#	.	.
!	!	!LO:DY:rj
8B#'	8d#' 8f#' 8g#'	f
=35	=35	=35
16G#LL	4.d# 4.f# 4.g#	.
16D#	.	.
16BB#	.	.
16D#JJ	.	.
8GG#	.	.
!	!	!LO:DY:rj
8B#'	8d#' 8f#' 8g#' 8dd#'	p
!!LO:LB:g=z
=36	=36	=36
16c#LL	4.e 4.g# 4.ee	.
16G#	.	.
16E	.	.
16G#JJ	.	.
8C#\	.	.
8c#'	8e' 8g#'	f
=37	=37	=37
16BnLL	4.e 4.g#	.
16G#	.	.
16E	.	.
16G#JJ	.	.
8BBn	.	.
8B'	8e' 8g#' 8ee'	p
=38	=38	=38
16A#LL	4.e 4.f# 4.ee	.
16F#	.	.
16C#	.	.
16F#JJ	.	.
8AA#	.	.
8AA#'	8c#' 8e'	f
=39	=39	=39
16GG#LL	4.B 4.e	sf
16EE	.	.
16BBB	.	.
16EEJJ	.	.
8GGG#	.	.
8GGG#' 8GG#'	8e' 8b' 8ee'	.
=40	=40	=40
8FFF# 8FF#	8e 8a# 8cc# 8ee	.
*clefG2	*	*
(16f#LL	8r	.
16g#JJ	.	.
16f#LL	4r	.
16g#	.	.
16f#	.	.
16g#JJ)	.	.
!!LO:LB:g=z
=41	=41	=41
*^	*	*
16f#LL	(4.A# 4.c#	(4.ee 4.ccc#	<
16g#	.	.	.
16f#	.	.	.
16g#JJ	.	.	.
16f#LL	.	.	.
16g#	.	.	.
16f#	8B 8d#)	8dd# 8bb)	.
16g#JJ	.	.	[
=42	=42	=42	=42
16f#LL	(8B 8d#L	(8dd# 8bbL	>
16g#	.	.	.
16f#	8c# 8e)	8cc# 8aa#)	.
16g#JJ	.	.	.
16f#LL	(8c# 8e	(8cc# 8aa#	.
16g#	.	.	.
16f#	8B 8d#J	8dd# 8bbJ	.
16g#JJ	.	.	]]
=43	=43	=43	=43
!	!LO:TX:b:i:t=legato	!LO:TX:a:i:t=legato	!
16f#LL	4.A# 4.c#)	4.ee 4.ccc#)	<
16g#	.	.	.
16f#	.	.	.
16g#JJ	.	.	.
16f#LL	.	.	.
16g#	.	.	.
16f#	(8B 8d#	(8dd# 8bb	.
16g#JJ	.	.	[
=44	=44	=44	=44
16f#LL	8c# 8eL	8cc# 8aa#L	>
16g#	.	.	.
16f#	8A# 8c#	8ee 8ccc#	.
16g#JJ	.	.	.
16f#LL	8B 8d#	8dd# 8bb	.
16g#	.	.	.
16f#	8c# 8eJ)	8cc# 8aa#J)	.
16g#JJ	.	.	]]
=45	=45	=45	=45
16f#LL	8d#	(8b 8bbL	pp
16b	.	.	.
16f#	8ryy	8aa#	.
16bJJ	.	.	.
16eLL	4ryy	8gg#	.
16b	.	.	.
16d#	.	8ff#J	.
16bJJ	.	.	.
*v	*v	*	*
!!LO:LB:g=z
=46	=46	=46
16eLL	8gg#L	.
16b	.	.
16f#	8ff#	.
16bJJ	.	.
16g#LL	8ee	.
16b	.	.
16e#	8dd#J)	.
16bJJ	.	.
=47	=47	=47
*^	*	*
16f#LL	2f#	(4.dd#	.
16g#	.	.	.
16a#	.	.	.
16bJJ	.	.	.
16a#LL	.	.	.
16b	.	.	.
16cc#	.	16eeLL	.
16dd#JJ	.	16ff#JJ)	.
=48	=48	=48	=48
8a#	8f#	8cc#	.
(16g#LL	8ryy	(16ff#LL	.
16f#JJ	.	16gg#JJ	.
16g#LL	4ryy	16ff#LL	.
16f#	.	16gg#	.
16g#	.	16ff#	.
16f#JJ)	.	16gg#JJ)	.
=49	=49	=49	=49
*	*	*8va	*
*	*	*^	*
!	!LO:TX:b:i:t=legato	!LO:TX:a:i:t=legato	!	!
16g#LL	(4.A# 4.c#	4.ccc# (4.eee	16ff#LL	<
16f#	.	.	16gg#	.
16g#	.	.	16ff#	.
16f#JJ	.	.	16gg#JJ	.
16g#LL	.	.	16ff#LL	.
16f#	.	.	16gg#	.
16g#	8B) 8d#	8bb 8ddd#)	16ff#	.
16f#JJ	.	.	16gg#JJ	[
=50	=50	=50	=50	=50
16g#LL	(8B 8d#L	(8bb 8ddd#L	16ff#LL	>
16f#	.	.	16gg#	.
16g#	8c#) 8e	8aa# 8ccc#)	16ff#	.
16f#JJ	.	.	16gg#JJ	.
16g#LL	(8c# 8e	(8aa# 8ccc#	16ff#LL	.
16f#	.	.	16gg#	.
16g#	8B) 8d#J	8bb 8ddd#J)	16ff#	.
16f#JJ	.	.	16gg#JJ	]]
!!LO:LB:g=z
=51	=51	=51	=51	=51
16g#LL	(4.A# 4.c#	4.ccc# (4.eee	16ff#LL	<
16f#	.	.	16gg#	.
16g#	.	.	16ff#	.
16f#JJ	.	.	16gg#JJ	.
16g#LL	.	.	16ff#LL	.
16f#	.	.	16gg#	.
16g#	8B) 8d#	8bb 8ddd#)	16ff#	.
16f#JJ	.	.	16gg#JJ	.
*v	*v	*	*	*
=52	=52	=52	=52
(16c# 16eLL	(8ccc#L	16aa#LL	.
16f#	.	16ff#	.
16F# 16A#	8ggg#	16eee	.
16f#JJ	.	16ff#JJ	.
16G# 16BLL	8fff#	16ddd#LL	.
16f#	.	16ff#	.
16A# 16c#	8eeeJ	16ccc#	.
16f#JJ	.	16ff#JJ	[
=53	=53	=53	=53
16B 16d#LL	8ddd#L	16bbLL	>
16f#	.	16ff#	.
16G# 16B	8fff#	16ddd#	.
16f#JJ	.	16ff#JJ	.
16A# 16c#LL	8eee	16ccc#LL	.
16f#	.	16ff#	.
16B 16d#	8ddd#J	16bb	.
16f#JJ	.	16ff#JJ	.
=54	=54	=54	=54
16c# 16eLL	8ccc#L	16aa#LL	.
16f#	.	16ff#	.
16A# 16c#	8eee	16ccc#	.
16f#JJ	.	16ff#JJ	.
16B 16d#LL	8ddd#	16bbLL	.
16f#	.	16ff#	.
16c# 16e	8ccc#J	16aa#	.
16f#JJ	.	16ff#JJ	.
=55	=55	=55	=55
*	*X8va	*X8va	*
16d#LL	8bbL	16bbLL	.
16f#	.	16ff#	.
16d#	8aan	16aan	.
16f#JJ	.	16b#JJ	.
16d#LL	8gg#	16gg#LL	.
16f#	.	16b#	.
16d#	8gg#J	16gg#	.
16f#JJ	.	16b#JJ	.
!!LO:LB:g=z
=56	=56	=56	=56
8d#) 8f#	16gg#)	16b#LL	pp
.	8.ryy	(16g#	.
8r	.	16a#	.
.	.	16b#JJ	.
.	.	(8dd#q	.
16r	4ryy	16cc#LL)	.
(16G#LL	.	16b#	.
16A#	.	16cc#	.
16B#JJ	.	16dd#JJ	.
*	*v	*v	*
=57	=57	=57
16c#LL)	16eeLL)	.
(16G#	(16b#	.
16A#	16cc#	.
16B#JJ	16dd#JJ	.
(8d#q	(8ff#q	.
16c#LL)	16eeLL)	.
16B#	16dd#	.
16c#	16ee	.
16d#JJ	16ff#JJ	.
=58	=58	=58
16eLL)	16gg#LL)	.
(16d#	(16ff#	.
16e	16ee	.
16f#JJ	16dd#JJ	.
16g#LL	16eeLL	.
16f#	16dd#	.
16e	16cc#	.
16e#JJ	16gg#JJ)	.
=59	=59	=59
8f#)	(16dd#LL	.
.	16cc#	.
8r	16bn	.
.	16ff#JJ	.
*clefF4	*	*
8F#	16cc#LL	.
.	16b	.
8r	16a#	.
.	16ff#JJ)	.
=60	=60	=60
!LO:TX:b:i:t=legato	!	!
12BBL	2f#/ 2dd#/ (>2ff#/	.
12F#	.	.
12D#J	.	.
*Xtuplet	*	*
!LO:TX:i:a:t=dolce	!	!
12BBL	.	.
12B	.	.
12F#J	.	.
!!LO:LB:g=z
=61	=61	=61
12C#L	4e 4cc# 4ee	.
12A#	.	.
12F#J	.	.
12D#L	4d# 4b 4dd#	.
12B	.	.
12F#J	.	.
=62	=62	=62
*	*^	*
12EL	4cc#	4g#	.
12c#	.	.	.
12G#J	.	.	.
12E#L	[4b	4g#	.
12dn	.	.	.
12G#J	.	.	.
=63	=63	=63	=63
12F#L	4b]	4f#	.
12d#X	.	.	.
12BJ	.	.	.
12EnL	8a#L	4f#	.
12c#	.	.	.
.	8ff#J)	.	.
12A#J	.	.	.
*	*v	*v	*
=64	=64	=64
16D#LL	2f#/ 2an/ (>2ff#/	.
16B	.	<
16F#	.	.
16D#JJ	.	.
16BBLL<	.	.
16F#	.	.
16D#	.	.
16BBJJ	.	.
=65	=65	=65
16C#LL	4e 4a 4ee	.
16A	.	.
16E	.	.
16C#JJ	.	.
16D#LL	4d# 4f# 4a 4dd#	.
16B	.	.
16F#	.	.
16D#JJ	.	.
=66	=66	=66
16ELL	4a/ 4cc#/	.
16c#	.	.
16A	.	.
16EJJ	.	.
!	!	!LO:HP:i:t=più cresc.
16F#LL	[4d# [4a [4b)	<
16B	.	.
16A	.	.
16F#JJ	.	.
!!LO:LB:g=z
=67	=67	=67
16F#LL	4d#] 4a] 4b]	.
16B	.	.
16A	.	.
16F#JJ	.	.
16CnLL	4d# 4f# 4a	sf
16A	.	.
16F#	.	.
16D#JJ	.	.
=68	=68	=68
*ped	*	*
16CnLL	16aLL	f
16A	16dd#	>
16F#	16ff#	.
16D#JJ	16dd#JJ	.
16CLL	16aaLL	.
16A	16ddd#	.
16F#	16fff#	.
*Xped	*	*
16D#JJ	16ddd#JJ	]]
=69	=69	=69
16BBLL	4aaa	p
16A	.	.
16F#	.	.
16D#JJ	.	.
16BBLL	16r	.
16A	(>16d#LL	.
16G#	16e	.
16F#JJ	16f#JJ	.
=70	=70	=70
*	*^	*
8EE 8E	4g#	16eLL	.
.	.	16B	.
8r	.	16e	.
.	.	16BJJ	.
4r	8bL	16g#LL	.
.	.	16B	.
.	8aJ	16f#	.
.	.	16BJJ	.
=71	=71	=71	=71
8BBB 8BB	8g#L	16eLL	.
.	.	16B	.
8r	8f#J)	16d#	.
.	.	16BJJ	.
4r	(8f#'L	16d#LL	.
.	.	16B	.
.	8g#'J)	16e	.
.	.	16BJJ	.
!!LO:LB:g=z
=72	=72	=72	=72
8CC# 8C#	(8aL	16eLL	.
.	.	16B	.
8r	8cc#J	16e	.
.	.	16BJJ	.
8DD# 8D#L	8bL	16f#LL	.
.	.	16B	.
8BBB 8BBJ	8f#J)	16d#	.
.	.	16BJJ	.
*	*v	*v	*
=73	=73	=73
16EE 16ELL<	4B 4e 4g#	.
16G#	.	.
16B	.	.
16AJJ	.	.
16G#LL	8r	.
16A	.	.
16G#	(16eeLL	.
16F#JJ	16ff#JJ	.
=74	=74	=74
16ELL	4g# 4gg#	.
16B	.	.
16BB	.	.
16BJJ	.	.
16ELL	8b 8bbL	.
16B	.	.
16BB	8a 8aaJ	.
16BJJ	.	.
=75	=75	=75
16D#LL	8g# 8gg#L	.
16B	.	.
16BB	8f# 8ff#J)	.
16BJJ	.	.
16D#LL	8f#' (8ff#'L	.
16B	.	.
16E#	8g#' 8gg#'J)	.
16BJJ	.	.
=76	=76	=76
16F#LL	8a (8aaL	<
16B	.	.
16A	8cc# 8ccc#	.
16BJJ	.	.
16G#LL	8b 8bbJ)	.
16B	.	.
16BB 16F#	8dd#' 8ddd#'	p
16AJJ	.	.
!!LO:LB:g=z
=77	=77	=77
16E 16G#LL	4ee 4eee	.
16B	.	.
16G#	.	.
16EJJ	.	.
16D#LL	8r	.
16B	.	.
16F#	(8b	.
16D#JJ	.	.
=78	=78	=78
*ped	*	*
16C#LL	4a#\	.
16A#	.	.
16F#	.	.
16C#JJ	.	.
16FF#LL	4ee	.
16A#	.	.
16F#	.	.
*Xped	*	*
16C#JJ	.	.
=79	=79	=79
16BBLL	4.dd#')	.
16B	.	.
16F#	.	.
16D#JJ	.	.
16BBLL	.	.
16B	.	.
16C#	(8an	.
16AnJJ	.	.
=80	=80	=80
*ped	*	*
16BBLL	4g#	.
16G#	.	.
16E	.	.
16BBJJ	.	.
16EELL<	4ddn	.
16G#	.	.
16E	.	.
*Xped	*	*
16BBJJ	.	.
=81	=81	=81
16AALL	4.cc#)	.
16A	.	.
16E	.	.
16C#JJ	.	.
16AALL	.	.
16E	.	<
16AA	(8cc#	.
16EJJ	.	.
!!LO:LB:g=z
=82	=82	=82
16GG#LL<	8b#L	.
16E	.	.
16AA	8cc#J)	.
16EJJ	.	.
16AALL<	(8c#' 8e' 8a'L	.
16E	.	.
16BB	8Bn') 8e' 8g#'J	.
16EJJ	.	.
=83	=83	=83
*	*^	*
16C#LL	(8g#	4A# 4e	.
16E	.	.	.
16C#	4f#)	.	.
16EJJ	.	.	.
16CnLL	.	4An 4e	.
16E	.	.	.
16C	(8f#	.	.
16EJJ	.	.	.
=84	=84	=84	=84
!	!	!	!LO:DY:rj
16BBLL	8f#L	8A 8d#	p
16F#	.	.	.
16BB	8b	4d#	.
16F# 16AJJ	.	.	.
16BBLL	8a#	.	.
16F# 16A	.	.	.
16BB	8bJ	8d#	.
16F# 16AJJ	.	.	.
=85	=85	=85	=85
16E 16G#LL	4e)	4e	.
16B	.	.	.
16G#	.	.	.
16EJJ	.	.	.
16D#LL	4r	8r	.
16B	.	.	.
16F#	.	8b (>8bb	.
16D#JJ	.	.	.
*	*v	*v	*
=86	=86	=86
*ped	*	*
16C#LL	4a# 4aa#	.
16A#	.	.
16F#	.	.
16C#JJ	.	.
16FF#LL	4ee 4eee	.
16A#	.	.
16F#	.	.
*Xped	*	*
16C#JJ	.	.
!!LO:LB:g=z
=87	=87	=87
16BBLL	4.dd# 4.ddd#)	.
16B	.	.
16F#	.	.
16D#JJ	.	.
16BBLL	.	.
16B	.	.
16C#	8an (8aan	.
16AnJJ	.	.
=88	=88	=88
*ped	*	*
16BBLL	4g# 4gg#	.
16G#	.	.
16E	.	.
16BBJJ	.	.
16EELL<	4ddn 4dddn	.
16G#	.	.
16E	.	.
*Xped	*	*
16BBJJ	.	.
=89	=89	=89
16AALL	4.cc# 4.ccc#)	.
16A	.	.
16E	.	.
16C#JJ	.	.
16AALL<	.	.
16E	.	<
16AA	8cc# (8ccc#	.
16EJJ	.	.
=90	=90	=90
16GG#LL<	8b# 8bb#L	.
16E	.	.
16AA	8cc# 8ccc#)	.
16EJJ	.	.
16AA 16C#LL	8a' (8aa'	.
16E	.	.
16BB 16E	8g#' 8gg#'J)	.
16G#JJ	.	.
=91	=91	=91
16C# 16ELL	8g# (8gg#	.
16A#	.	.
16C# 16E	4f# 4ff#)	.
16A#JJ	.	.
16Cn 16ELL	.	.
16An	.	.
16C 16E	8f# 8ff#	.
16AJJ	.	.
!!LO:LB:g=z
=92	=92	=92
16BB 16D#LL	8f# (8ff#L	p
16A	.	.
16BB 16D#	8b 8bb	.
16AJJ	.	.
16BB 16D#LL	8a# 8aa#	.
16A	.	.
16BB 16D#	8b 8bbJ	.
16AJJ	.	.
=93	=93	=93
16E 16G#LL	4e\ 4ee\)	.
16E	.	.
16D#	.	.
16C#JJ	.	.
16BBLL	8r	.
16AA	.	.
!	!LO:TX:a:i:t=teneramente	!
16GG#	(>16eLL	.
16FF#JJ	16f#JJ	.
=94	=94	=94
*	*^	*
8EE'	4g#	16eLL	.
.	.	16B	.
8r	.	16e	.
.	.	16BJJ	.
4r	8bL	16g#LL	.
.	.	16B	.
.	8aJ	16f#	.
.	.	16BJJ	.
=95	=95	=95	=95
8BBB'	8g#L	16eLL	.
.	.	16B	.
8r	8f#J	16d#)	.
.	.	16BJJ	.
4r	(8f#'L	16d#LL	.
.	.	16B	.
.	8g#'J)	16e	.
.	.	16BJJ	.
=96	=96	=96	=96
8CC#	(8aL	16eLL	.
.	.	16B	.
8r	8cc#J	16e	.
.	.	16BJJ	.
8DD#'L	8bL	16f#LL	.
.	.	16B	.
8BBB'J	8f#J)	16d#	.
.	.	16BJJ	.
*	*v	*v	*
!!LO:LB:g=z
=97	=97	=97
8EE'	8B 8e 8g#	.
*clefG2	*	*
16eLL	8r	.
16BJJ	.	.
.	(8ff#q	.
16eLL	(16eeLL)	<
16B	16dd#	.
16e	16ee	.
16BJJ	16ff#JJ	.
=98	=98	=98
.	(8aaq	.
16eLL	16gg#LL)	.
16B	16ff#	.
16e	16gg#	.
16BJJ	16aaJJ	.
16g#LL	8b 8bbL	>
16B	.	.
16f#	8a 8aaJ	.
16BJJ	.	]
=99	=99	=99
16eLL	8g# 8gg#L	<
16B	.	.
16d#	8f# 8ff#J)	.
16BJJ	.	.
16d#LL	8f#' (8ff#'L	.
16B	.	.
16e#	8g#' 8gg#'J)	.
16BJJ	.	.
=100	=100	=100
16f#LL	8a (8aaL	.
16B	.	.
16a	8cc# 8ccc#	.
16BJJ	.	.
16g#LL	8b 8bbJ)	.
16B	.	.
16f#	8dd#' 8aa' 8ddd#'	f
16BJJ	.	.
*clefF4	*	*
=101	=101	=101
*	*^	*
16eLL	4ryy	4ee' 4gg#' 4eee'	.
16B	.	.	.
16G#	.	.	.
16BJJ	.	.	.
16ELL	8r	8r	.
16B	.	.	.
16BB	(8g#	8e	p
16BJJ	.	.	.
!!LO:LB:g=z
=102	=102	=102	=102
16F#LL	8aL	4d#	.
16B	.	.	.
16A	8cc#	.	.
16BJJ	.	.	.
16G#LL	8bJ)	8e	.
16B	.	.	.
16F#	8dd#	8a	.
16BJJ	.	.	.
=103	=103	=103	=103
16ELL	4.ee	8g#	.
16B	.	.	.
16e	.	4gn	.
16BJJ	.	.	.
16eLL	.	.	.
16B	.	.	.
16e	8ryy	(8ggn	.
16BJJ	.	.	.
*clefG2	*	*	*
*	*v	*v	*
=104	=104	=104
16f#LL	8aaL	<
16B	.	.
16a	8cccn	.
16BJJ	.	.
16gnLL	8bbJ)	.
16B	.	.
16f#	8dd#' 8aa' 8ddd#'	f
16BJJ	.	.
*clefF4	*	*
=105||	=105||	=105||
*k[f#]	*k[f#]	*
16eLL	4ee 4gg 4eee	.
16B	.	.
16G	.	.
16BJJ	.	.
16ELL	8r	.
16B	.	.
16BB	(8g\	p
16BJJ	.	.
=106	=106	=106
16F#LL	8aL	<
16B	.	.
16A	8cc	.
16BJJ	.	.
16GLL	8bJ)	.
16B	.	.
16F#	8a' 8dd#'	.
16BJJ	.	.
!!LO:LB:g=z
=107	=107	=107
16ELL	8g' 8ee'L	.
16e	.	.
16Dn	8ee' 8gg'	.
16dnJJ	.	.
16CLL	8ee' 8ccc'	.
16c	.	.
16BB	8ee' 8ccc'J	.
16BJJ	.	.
=108	=108	=108
16AALL	8ee' 8ccc'L	.
16A	.	.
16GG	8aa' 8ccc'	.
16GJJ	.	.
16FFnLL<	8ddd' 8fffn'	.
16Fn	.	.
16EE	8ddd' 8fff'J	.
16EJJ	.	.
=109||	=109||	=109||
*k[]	*k[]	*
16DDLL	8ddd 8fffL	.
16D	.	.
16CC	8ddd 8fff	.
16CJJ	.	.
16BBBLL	8ddd 8fff	.
16BB	.	.
16AAA	8ddd 8fffJ	.
16AAJJ	.	.
=110	=110	=110
16GGGLL	[2ddd [2fff	f
16GG	.	.
16BBB	.	.
16BBJJ	.	.
16DDLL	.	.
16D	.	.
16FF#	.	.
16F#JJ	.	.
=111	=111	=111
16GGLL	2ddd_ 2fff_	.
16G	.	.
16BB	.	.
16BJJ	.	.
16DLL	.	.
16d	.	.
16F#	.	.
16f#JJ	.	.
*clefG2	*	*
!!LO:LB:g=z
=112	=112	=112
16GLL	8ddd] 8fff]	.
16g	.	.
16A	4ddd 4fff	.
16aJJ	.	.
16BLL	.	.
16b	.	.
16c	8ccc 8eee	>
16ccJJ	.	.
=113	=113	=113
16fLL	8ddd'L	pp
16cc	.	.
16f#	8dd' 8aa'	.
16ccJJ	.	.
16gLL	8ee' 8gg'J	.
16ccJJ	.	.
8G	16b 16dd 16ggLL	.
.	16gJJ	.
*clefF4	*	*
=114	=114	=114
*tuplet	*	*
!	!LO:TX:a:i:t=sempre legato	!
12CL	2g 2ee 2gg	.
12G	.	.
12EJ	.	.
12CL	.	.
12c	.	.
12GJ	.	.
=115	=115	=115
*Xtuplet	*	*
12DL	4f 4dd 4ff	.
12B	.	.
12GJ	.	.
12EL	4g 4cc 4ee	.
12c	.	.
12GJ	.	.
=116	=116	=116
12FL	4a 4dd	.
12d	.	.
12AJ	.	.
12F#L	4a [4cc	.
12e-	.	.
12cJ	.	.
=117	=117	=117
*	*^	*
12GL	4cc]	4g	.
12en	.	.	.
12cJ	.	.	.
12GL	8bL	4g	.
12f	.	.	.
.	8ggJ	.	.
12B 12dJ	.	.	.
*	*v	*v	*
!!LO:LB:g=z
=118	=118	=118
16C 16cLL	2g 2ee- 2gg	<
16G	.	.
16E-	.	.
16GJJ	.	.
16CLL	.	.
16c	.	.
16G	.	.
16CJJ	.	.
=119	=119	=119
16DLL	4f 4dd 4ff	.
16B	.	.
16G	.	.
16DJJ	.	.
16E-LL	4e-\ 4g\ 4cc\ 4ee-\	.
16c	.	.
16G	.	.
16E-JJ	.	.
=120	=120	=120
*	*^	*
16FLL	4dd	4a-	.
16d	.	.	.
16A-	.	.	.
16FJJ	.	.	.
16F#LL	[4cc	4an	.
16e-	.	.	.
16c	.	.	.
16F#JJ	.	.	.
=121	=121	=121	=121
16GLL	4cc]	4g	.
16e-	.	.	.
16c	.	.	.
16GJJ	.	.	.
16G#LL	8b#L	4f#	.
16d#	.	.	.
16B#	8gg#J	.	.
16d#JJ	.	.	.
*	*v	*v	*
=122	=122	=122
*tuplet	*	*
!	!LO:TX:a:i:t=legato	!
12C# 12c#L	2g# 2ee 2gg#	p
12G#	.	.
12EJ	.	.
12C#L	.	.
12c#	.	.
12G#J	.	.
=123	=123	=123
*Xtuplet	*	*
12D#L	4f# 4dd# 4ff#	.
12B#	.	.
12G#J	.	.
12EL	4g# 4cc# 4ee	.
12c#	.	.
12G#J	.	.
!!LO:LB:g=z
=124||	=124||	=124||
*k[f#c#g#d#]	*k[f#c#g#d#]	*
*	*^	*
12F#L	4dd#	4a	.
12d#	.	.	.
12AJ	.	.	.
12F##L	[4cc#	4a#	.
12e	.	.	.
12c#J	.	.	.
=125	=125	=125	=125
12G#L	4cc#]	4g#	.
12e	.	.	.
12c#J	.	.	.
16G#LL	8b#L	4g#	.
16d#	.	.	.
16B#	8gg#J	.	.
16d#JJ	.	.	.
*	*v	*v	*
=126	=126	=126
16C# 16c#LL	2g# 2ee# 2gg#	<
16G#	.	.
16E#	.	.
16G#JJ	.	.
16C#LL	.	.
16c#	.	.
16G#	.	.
16C#JJ	.	.
=127	=127	=127
16D#LL	4f# 4dd# 4ff#	.
16B#	.	.
16G#	.	.
16D#JJ	.	.
16E#LL	4e#\ 4g#\ 4cc#\ 4ee#\	.
16c#	.	.
16G#	.	.
16E#JJ	.	.
=128	=128	=128
16F#LL	4an 4dd#	.
16c#	.	.
16A	.	.
16F#JJ	.	.
16F#LL	[4a 4cc#	.
16c#	.	.
16A	.	.
16F#JJ	.	.
=129	=129	=129
16F#LL	4a\] 4b#\	.
16c#	.	.
16A	.	.
16F#JJ	.	.
16EnLL	8a 8cc#L	.
16c#	.	.
16A	8ff# 8aaJ	.
16EJJ	.	.
!!LO:LB:g=z
=130	=130	=130
8D# 8Bn	[2a [2ff# [2aa	f
16AzLL	.	.
16cnJJ	.	.
!	!	!LO:DY:b=2
16BLL	.	p
16A#	.	.
16B	.	.
16F#JJ	.	.
=131	=131	=131
16D#LL<	2a] 2ff#] 2aa]	.
16C#	.	.
16D#	.	.
16BBJJ	.	.
8D#'L	.	.
8F#'J	.	.
=132	=132	=132
8r	[2dd# [2ff# [2aa [2ddd#	f
16AzLL	.	.
16cnJJ	.	.
!	!	!LO:DY:b=2
16BLL	.	p
16A#	.	.
16B	.	.
16F#JJ	.	.
=133	=133	=133
16D#LL<	2dd#] 2ff#] 2aa] 2ddd#]	.
16C#	.	.
16D#	.	.
16BBJJ	.	.
8D#'L	.	.
8F#'J	.	.
=134	=134	=134
8r	[2ff# [2aa [2ddd# [2fff#	f
16AzLL	.	.
16cnJJ	.	.
!	!	!LO:DY:b=2
16BLL	.	p
16A#	.	.
16B	.	.
16F#JJ	.	.
=135	=135	=135
16D#LL<	2ff#] 2aa] 2ddd#] 2fff#]	.
16C#	.	.
16D#	.	.
16BBJJ	.	.
16D#LL	.	.
16C#	.	.
16D#	.	.
16F#JJ	.	.
!!LO:LB:g=z
=136	=136	=136
8A'	8ff#'	f
(8D#L	16aLL>	p
.	16ccnJJ	.
8F#	16bLL	.
.	16a#	.
8BJ)	16b	.
.	16f#JJ	.
=137	=137	=137
8A'	8ff#'	sf
(8D#L	16anLL>	p
.	16ccnJJ	.
8F#	16bLL	.
.	16a#	.
8BJ)	16b	.
.	16f#JJ	.
=138	=138	=138
8A'	8ff#'	sf
(8D#L	(16anLL>	p
.	16ccnJJ	.
8F#	16bLL	.
.	16a#	.
[8BJ)	16b	.
.	16anJJ	.
=139	=139	=139
(16BLL]	16g#LL	.
16A	16f#	.
16B	16g#	.
16AJJ	16f#JJ	.
16G#LL	16eLL	.
16A	16d#	.
16G#	16e	.
16F#JJ)	16f#JJ)	.
=140	=140	=140
*	*^	*
8EE 8E	(4g#	16eLL	.
.	.	16B	.
8r	.	16e	.
.	.	16BJJ	.
4r	8bL	16g#LL	.
.	.	16B	.
.	8aJ	16f#	.
.	.	16BJJ	.
!!LO:LB:g=z
=141	=141	=141	=141
8BBB 8BB	8g#L	16eLL	.
.	.	16B	.
8r	8f#J	16d#	.
.	.	16BJJ)	.
4r	(8f#'L	16d#LL	.
.	.	16B	.
.	8g#'J)	16e	.
.	.	16BJJ	.
=142	=142	=142	=142
8CC# 8C#	(8aL	16eLL	.
.	.	16B	.
8r	8cc#J	16e	.
.	.	16BJJ	.
8DD# 8D#L	8bL	16f#LL	.
.	.	16B	.
8BBB 8BBJ	8f#J)	16d#	.
.	.	16BJJ	.
*	*v	*v	*
=143	=143	=143
16EE 16ELL<	4B 4e 4g#	.
16G#	.	.
16B	.	.
16AJJ	.	.
16G#LL	8r	.
16A	.	.
16G#	(16eeLL	.
16F#JJ	16ff#JJ	.
=144	=144	=144
16ELL	4g# 4gg#	.
16B	.	.
16BB	.	.
16BJJ	.	.
16ELL	8b 8bbL	.
16B	.	.
16BB	8a 8aaJ	.
16BJJ	.	.
=145	=145	=145
16D#LL	8g# 8gg#L	.
16B	.	.
16BB	8f# 8ff#J)	.
16BJJ	.	.
16D#LL	8f#' (8ff#'L	.
16B	.	.
16E#	8g#' 8gg#'J)	.
16BJJ	.	.
!!LO:LB:g=z
=146	=146	=146
16F#LL	8a (8aaL	<
16B	.	.
16A	8cc# 8ccc#	.
16BJJ	.	.
16G#LL	8b 8bbJ)	.
16B	.	.
16BB 16F#	8dd#' 8ddd#'	p
16AJJ	.	.
=147	=147	=147
16E 16G#LL	4ee 4eee	.
16B	.	.
16G#	.	.
16EJJ	.	.
16D#LL	8r	.
16B	.	.
16F#	(8b	.
16D#JJ	.	.
=148	=148	=148
*ped	*	*
16C#LL	4a#\	.
16A#	.	.
16F#	.	.
16C#JJ	.	.
16FF#LL	4ee	.
16A#	.	.
16F#	.	.
*Xped	*	*
16C#JJ	.	.
=149	=149	=149
16BBLL	4.dd#)	.
16B	.	.
16F#	.	.
16D#JJ	.	.
16BBLL	.	.
16B	.	.
16C#	(>8an	.
16AnJJ	.	.
=150	=150	=150
*ped	*	*
16BBLL	4g#	.
16G#	.	.
16E	.	.
16BBJJ	.	.
16EELL<	4ddn	.
16G#	.	.
16E	.	.
*Xped	*	*
16BBJJ	.	.
!!LO:LB:g=z
=151	=151	=151
16AALL	4.cc#)	.
16A	.	.
16E	.	.
16C#JJ	.	.
16AALL<	.	.
16E	.	<
16AA	(8cc#	.
16EJJ	.	.
=152	=152	=152
16GG#LL<	8b#L	.
16E	.	.
16AA	8cc#J)	.
16EJJ	.	.
16AALL<	(8c#' 8e' 8a'L	.
16E	.	.
16BB	8Bn') 8e' 8g#'J	.
16EJJ	.	.
=153	=153	=153
*	*^	*
16C#LL	(8g#	4A# 4e	.
16E	.	.	.
16C#	4f#)	.	.
16EJJ	.	.	.
16CnLL	.	4An 4e	.
16E	.	.	.
16C	(8f#	.	.
16EJJ	.	.	.
=154	=154	=154	=154
!	!	!	!LO:DY:rj
16BBLL	8f#L	8A 8d#	p
16F#	.	.	.
16BB	8b	4d#	.
16F# 16AJJ	.	.	.
16BBLL	8a#	.	.
16F# 16A	.	.	.
16BB	8bJ	8d#	.
16F# 16AJJ	.	.	.
*	*v	*v	*
=155	=155	=155
16E 16G#LL	4e)	.
16B	.	.
16G#	.	.
16EJJ	.	.
16D#LL	8r	.
16B	.	.
16F#	8b (8bb	.
16D#JJ	.	.
!!LO:LB:g=z
=156	=156	=156
*ped	*	*
16C#LL	4a# 4aa#	.
16A#	.	.
16F#	.	.
16C#JJ	.	.
16FF#LL	4ee 4eee	.
16A#	.	.
16F#	.	.
*Xped	*	*
16C#JJ	.	.
=157	=157	=157
16BBLL	4.dd# 4.ddd#)	.
16B	.	.
16F#	.	.
16D#JJ	.	.
16BBLL	.	.
16B	.	.
16C#	8an (8aan	.
16AnJJ	.	.
=158	=158	=158
*ped	*	*
16BBLL	4g# 4gg#	.
16G#	.	.
16E	.	.
16BBJJ	.	.
16EELL<	4ddn 4dddn	.
16G#	.	.
16E	.	.
*Xped	*	*
16BBJJ	.	.
=159	=159	=159
16AALL	4.cc# 4.ccc#)	.
16A	.	.
16E	.	.
16C#JJ	.	.
16AALL<	.	.
16E	.	<
16AA	8cc# (8ccc#	.
16EJJ	.	.
=160	=160	=160
16GG#LL<	8b# 8bb#L	.
16E	.	.
16AA	8cc# 8ccc#)	.
16EJJ	.	.
16AA 16C#LL	8a' (8aa'	.
16E	.	.
16BB 16E	8g#' 8gg#'J)	.
16G#JJ	.	.
!!LO:LB:g=z
=161	=161	=161
16C# 16ELL	8g# (8gg#	.
16A#	.	.
16C# 16E	4f# 4ff#)	.
16A#JJ	.	.
16Cn 16ELL	.	.
16An	.	.
16C 16E	8f# (8ff#	.
16AJJ	.	.
=162	=162	=162
16BB 16D#LL	8f# 8ff#L	p
16A	.	.
16BB 16D#	8b 8bb	.
16AJJ	.	.
16BB 16D#LL	8a# 8aa#	.
16A	.	.
16BB 16D#	8b 8bbJ	.
16AJJ	.	.
=163	=163	=163
16E 16G#LL	4e\ 4ee\)	.
16E	.	.
16D#	.	.
16C#JJ	.	.
16BBLL	8r	.
16AA	.	.
!	!LO:TX:a:i:t=teneramente	!
16GG#	(>16eLL	.
16FF#JJ	16f#JJ	.
=164	=164	=164
*	*^	*
8EE	4g#	16eLL	.
.	.	16B	.
8r	.	16e	.
.	.	16BJJ	.
4r	8bL	16g#LL	.
.	.	16B	.
.	8aJ	16f#	.
.	.	16BJJ	.
=165	=165	=165	=165
8BBB' 8BB'	8g#L	16eLL	.
.	.	16B	.
8r	8f#J)	16d#	.
.	.	16BJJ	.
4r	(8f#'L	16d#LL	.
.	.	16B	.
.	8g#'J)	16e	.
.	.	16BJJ	.
!!LO:LB:g=z
=166	=166	=166	=166
8CC#' 8C#'	(8aL	16eLL	.
.	.	16B	.
8r	8cc#J	16e	.
.	.	16BJJ	.
8DD#' 8D#'L	8bL	16f#LL	.
.	.	16B	.
8BBB' 8BB'J	8f#J)	16d#	.
.	.	16BJJ	.
*	*v	*v	*
=167	=167	=167
8EE'	8B 8e 8g#	.
*clefG2	*	*
16eLL	8r	.
16BJJ	.	.
.	(8ff#q	.
16eLL	()16eeLL	<
16B	16dd#	.
16e	16ee	.
16BJJ	16ff#JJ	.
=168	=168	=168
.	(8aaq	.
16eLL	16gg#LL)	.
16B	16ff#	.
16e	16gg#	.
16BJJ	16aaJJ	.
16g#LL	8b 8bbL	>
16B	.	.
16f#	8a 8aaJ	.
16BJJ	.	]
=169	=169	=169
16eLL	8g# 8gg#L	<
16B	.	.
16d#	8f# 8ff#J)	.
16BJJ	.	.
16d#LL	8f#' (8ff#'L	.
16B	.	.
16e#	8g#' 8gg#'J)	.
16BJJ	.	.
=170	=170	=170
16f#LL	8a (8aaL	.
16B	.	.
16a	8cc# 8ccc#	.
16BJJ	.	.
16g#LL	8b 8bbJ)	.
16B	.	.
16f#	8dd#' 8aa' 8ddd#'	f
16BJJ	.	.
*clefF4	*	*
!!LO:LB:g=z
=171	=171	=171
16eLL	4ee' 4gg#' 4eee'	.
16B	.	.
16G#	.	.
16BJJ	.	.
8E	8r	.
8r	8e' 8g#'	f
=172	=172	=172
16c#LL	4.e 4.g#	sf
16G#	.	.
16E	.	.
16G#JJ	.	.
8C#\	.	.
8c#'	8e' 8g#' 8ee'	p
=173	=173	=173
16B#LL	4.d# 4.f# 4.g# 4.dd#	.
16G#	.	.
16D#	.	.
16G#JJ	.	.
8BB#	.	.
8B#'	8d#' 8g#'	f
=174	=174	=174
16BnLL	4.dn 4.e 4.g#	sf
16G#	.	.
16E	.	.
16G#JJ	.	.
8BBn	.	.
8B'	8d' 8e' 8ddn'	p
=175	=175	=175
16ALL	4.c# 4.e 4.cc#	.
16E	.	.
16C#	.	.
16EJJ	.	.
8AA	.	.
8A'	8c#'	f
!!LO:LB:g=z
=176	=176	=176
16G#LL	4.B 4.c#	sf
16E#	.	.
16C#	.	.
16E#JJ	.	.
8GG#	.	.
8G#'	8B' 8c#' 8b'	p
=177	=177	=177
16F#LL<	4.A 4.c# 4.a	.
16C#	.	.
16AA	.	.
16C#JJ	.	.
8FF#	.	.
!	!	!LO:DY:rj
8f#'	8cc#' 8ff#' 8aa'	sf
=178	=178	=178
16d#LL	4.b 4.ff# 4.aa	.
16B	.	.
16F#	.	.
16BJJ	.	.
8D#	.	.
8D#'	8f#' 8a'	f
=179	=179	=179
16CnLL	4.e 4.a	.
16AA	.	.
16EE	.	.
16AAJJ	.	.
8CCn	.	.
!	!	!LO:DY:rj
8C' 8cn'	8a' 8ee' 8aa'	sf
=180	=180	=180
8BB' 8B'	8a' 8dd#' 8ff#' 8aa'	.
*clefG2	*	*
!	!	!LO:DY:b=2:rj
(16bLL	8r	p
16cc#JJ	.	.
16bLL	4r	.
16cc#	.	.
16b	.	.
16cc#JJ)	.	.
!!LO:LB:g=z
=181	=181	=181
*^	*	*
16bLL	(4.d# 4.f#	4.aa (4.fff#	p <
16cc#	.	.	.
16b	.	.	.
16cc#JJ	.	.	.
16bLL	.	.	.
16cc#	.	.	.
16b	8e) 8g#	8gg# 8eee)	.
16cc#JJ	.	.	[
=182	=182	=182	=182
16bLL	(8e 8g#L	8gg# (8eeeL	>
16cc#	.	.	.
16b	8aJ)	8ff# 8ddd#)	.
16cc#JJ	.	.	.
16bLL	(8f# 8aL	8ff# (8ddd#	.
16cc#	.	.	.
16b	8e 8g#J	8gg# 8eeeJ	.
16cc#JJ	.	.	]
=183	=183	=183	=183
16bLL	4.d#) 4.f#	4.aa 4.fff#)	<
16cc#	.	.	.
16b	.	.	.
16cc#JJ	.	.	.
16bLL	.	.	.
16cc#	.	.	.
16b	(8e 8g#	8gg# (8eee	.
16cc#JJ	.	.	[
=184	=184	=184	=184
16bLL	8f# 8aL	8ff# 8ddd#L	>
16cc#	.	.	.
16b	8d# 8f#J	8aa 8fff#	.
16cc#JJ	.	.	.
16bLL	8e 8g#L	8gg# 8eee	.
16cc#	.	.	.
16b	8f#) 8aJ	8ff# 8ddd#J)	.
16cc#JJ	.	.	]
*v	*v	*	*
=185	=185	=185
16g# 16bLL	8ee (8eeeL	pp
16ee	.	.
16b	8ddd#	.
16eeJJ	.	.
16aLL	8ccc#	.
16ee	.	.
16g#	8bbJ	.
16eeJJ	.	.
!!LO:LB:g=z
=186	=186	=186
16aLL	8ccc#L	.
16ee	.	.
16b	8bb	.
16eeJJ	.	.
16cc#LL	8aa	.
16ee	.	.
16a#	8gg#J)	.
16eeJJ	.	.
=187	=187	=187
*^	*	*
16bLL	2b	(4.gg#	.
16cc#	.	.	.
16dd#	.	.	.
16eeJJ	.	.	.
16dd#LL	.	.	.
16ee	.	.	.
16ff#	.	16aaLL	.
16gg#JJ	.	16bbJJ)	.
=188	=188	=188	=188
8dd#	8b	8ff#	.
*v	*v	*	*
*clefF4	*	*
*^	*	*
(16c#LL	8r	(16bLL	.
16BJJ	.	16cc#JJ	.
16c#LL	4r	16bLL	.
16B	.	16cc#	.
16c#	.	16b	.
16BJJ)	.	16cc#JJ)	.
=189	=189	=189	=189
*	*	*^	*
16c#LL	(4.D# 4.F#	4.ff# (4.aa	16bLL	.
16B	.	.	16cc#	<
16c#	.	.	16b	.
16BJJ	.	.	16cc#JJ	.
16c#LL	.	.	16bLL	.
16B	.	.	16cc#	.
16c#	8E 8G#)	8ee 8gg#)	16b	[
16BJJ	.	.	16cc#JJ	.
=190	=190	=190	=190	=190
16c#LL	(8E 8G#L	(8ee 8gg#L	16bLL	>
16B	.	.	16cc#	.
16c#	8F# 8AJ)	8dd# 8ff#J)	16b	.
16BJJ	.	.	16cc#JJ	.
16c#LL	(8F#L	(8dd# 8ff#L	16bLL	.
16B	.	.	16cc#	]
16c#	8E 8G#J)	8ee 8gg#J)	16b	.
16BJJ	.	.	16cc#JJ	.
!!LO:LB:g=z
=191	=191	=191	=191	=191
16c#LL	(4.D# 4.F#	4.ff# (4.aa	16bLL	<
16B	.	.	16cc#	.
16c#	.	.	16b	.
16BJJ	.	.	16cc#JJ	.
16c#LL	.	.	16bLL	.
16B	.	.	16cc#	.
16c#	8E) 8G#	8ee 8gg#)	16b	.
16BJJ	.	.	16cc#JJ	.
=192	=192	=192	=192	=192
16ALL	(8F#L	(8ff#L	16dd#LL	.
16B	.	.	16b	.
16D#	8BB	8ccc#	16aa	.
16BJJ	.	.	16bJJ	.
16ELL	8C#	8bb	16gg#LL	.
16B	.	.	16b	.
16F#	8D#J	8aaJ	16ff#	.
16BJJ	.	.	16bJJ	[
=193	=193	=193	=193	=193
16G#LL	8EL	8gg#L	16eeLL	>
16B	.	.	16b	.
16E	8C#	8bb	16gg#	.
16BJJ	.	.	16bJJ	.
16F#LL	8D#	8aa	16ff#LL	.
16B	.	.	16b	.
16G#	8EJ	8gg#J	16ee	.
16BJJ	.	.	16bJJ	.
=194	=194	=194	=194	=194
16ALL	8F#L	8ff#L	16dd#LL	.
16B	.	.	16b	.
16F#	8D#	8aa	16ff#	.
16BJJ	.	.	16bJJ	.
16G#LL	8E	8gg#	16eeLL	.
16B	.	.	16b	.
16A	8F#J	8ff#J	16dd#	.
16d#JJ	.	.	16aJJ	.
*v	*v	*	*	*
=195	=195	=195	=195
16G#LL	8eeL	16bLL	.
16B	.	16g#	.
16G#	8ddn	16b	.
16BJJ	.	16e#JJ	.
16G#LL	8cc#	16bLL	.
16B	.	16e#	.
16G#	8cc#J	16b	.
16BJJ	.	16e#JJ	.
*	*v	*v	*
!!LO:LB:g=z
=196	=196	=196
8G#) 8B	16e# 16cc#)	.
.	(16cc#LL	pp
8r	16dd#	.
.	16ee#JJ	.
*clefG2	*	*
.	(8gg#q	.
16r	16ff#LL)	.
(16c#LL	16ee#	.
16d#	16ff#	.
16e#JJ	16gg#JJ	.
=197	=197	=197
16f#LL)	16aaLL)	.
(16c#	(16ee#	.
16d#	16ff#	.
16e#JJ	16gg#JJ	.
(8g#q	(8bbq	.
16f#LL)	16aaLL)	.
16e#	16gg#	.
16f#	16aa	.
16g#JJ	16bbJJ	.
=198	=198	=198
16aLL)	16ccc#LL)	.
(16g#	(16bb	.
16a	16aa	.
16bJJ	16gg#JJ	.
16cc#LL	16aaLL	.
16b	16gg#	.
16a	16ff#	.
16a#JJ	16ccc#JJ)	.
=199	=199	=199
8b/)	(16gg#LL	.
.	16ff#	.
8r	16een	.
.	16bbJJ	.
8B	16ff#LL	.
.	16ee	.
8r	16dd#	.
.	16bbJJ)	.
*clefF4	*	*
=200	=200	=200
*tuplet	*	*
!LO:TX:a:i:t=legato	!	!
12EL	2b 2gg# (>2bb	.
12B	.	.
12G#J	.	.
12EL	.	.
12e	.	.
12BJ	.	.
!!LO:LB:g=z
=201	=201	=201
*Xtuplet	*	*
12F#L	4a 4ff# 4aa	.
12d#	.	.
12BJ	.	.
12G#L	4b 4ee 4gg#	.
12e	.	.
12BJ	.	.
=202	=202	=202
12AL	4cc# 4ff#	.
12f#	.	.
12c#J	.	.
12A#L	4cc# [4ee	.
12gn	.	.
12eJ	.	.
=203	=203	=203
*	*^	*
12BL	4ee]	4b	.
12g#X	.	.	.
12eJ	.	.	.
12AnL	8dd#L	4b	.
12f#	.	.	.
.	8bbJ)	.	.
12d#J	.	.	.
*	*v	*v	*
=204	=204	=204
16G#LL	2b 2ddn (2bb	<
16e	.	.
16B	.	.
16G#JJ	.	.
16ELL	.	.
16B	.	.
16G#	.	.
16EJJ	.	.
=205	=205	=205
16F#LL	4a 4ddn 4aa	.
16dn	.	.
16A	.	.
16F#JJ	.	.
16G#LL	4g# 4b 4dd 4gg#	.
16e	.	.
16B	.	.
16G#JJ	.	.
!!LO:LB:g=z
=206	=206	=206
16ALL	4ddn 4ff#	.
16f#	.	.
16dn	.	.
16AJJ	.	.
16BLL	4dd 4ee	.
16g#	.	.
16d	.	.
16BJJ	.	.
=207	=207	=207
16G#LL	4b 4ddn 4ee)	.
16dn	.	.
16B	.	.
16G#JJ	.	.
16FnLL	4dd 4dddn	f
16d	.	.
16B	.	.
16G#JJ	.	.
=208	=208	=208
*ped	*	*
16FnLL	2ddn 2dddn	.
16dn	.	.
16B	.	.
16A-JJ	.	.
16FLL	.	.
16d	.	.
16B	.	.
*Xped	*	*
16A-JJ	.	.
=209||	=209||	=209||
*k[]	*k[]	*
*ped	*	*
16DLL	2ff 2fff	sf
16B	.	.
16A-	.	.
16FJJ	.	.
16DLL	.	.
16B	.	.
16A-	.	.
*Xped	*	*
16FJJ	.	.
=210	=210	=210
*ped	*	*
16BBLL	16ff 16fff	f
16A-	16fLL<	.
16F	16b	.
16DJJ	16ddJJ	.
16BBLL	16ffLL	>
16A-	16bb	.
16F	16ddd	.
*Xped	*	*
16DJJ	16bbJJ	]
!!LO:LB:g=z
=211	=211	=211
16BBLL	4fff	p
16G	.	.
16F	.	.
16DJJ	.	.
16BBLL	8r	.
16G	.	.
16BB	8ee	>
16GJJ	.	.
=212	=212	=212
!	!	!LO:DY:i:t=%s sempre legato
4BB 4G	8ffL	pp
.	8aa-	.
*clefG2	*	*
8r	8gg	.
8g	8ddJ	.
=213	=213	=213
*^	*	*
8gL	4r	8eeL	.
8a-	.	8ff	.
8g	8r	8ee	.
8dJ	8G	8bJ	.
*v	*v	*	*
*clefF4	*	*
=214	=214	=214
*^	*^	*
4.ryy	8GL	4cc	2e	.
.	8B-	.	.	.
.	8A	4cc#	.	.
8G	8EJ	.	.	.
*v	*v	*	*	*
=215	=215	=215	=215
8F 8AL	4dd	4d	.
8G 8B-	.	.	.
8F 8A	[4aa	4re	.
8C# 8EJ	.	.	.
*	*v	*v	*
=216	=216	=216
8D 8F	8aaL]	.
4d 4f	8bb-	.
.	8aa	.
[8c [8e-	8ffJ	.
!!LO:LB:g=z
=217	=217	=217
8c] 8e-L]	8bb-L	pp
8B- ((8d-	8ff	.
8A# 8c#))	8ee#	.
[8G# [8BnJ	8cc#J	.
=218||	=218||	=218||
*k[f#c#g#d#]	*k[f#c#g#d#]	*
8G#] 8B]	(8ff#L	.
4F# 4A#	8cc#	.
.	8cc#	.
[8F# [8A#	8a#J)	.
=219	=219	=219
8F#] 8A#]	(8aa#L	.
4F# 4A#	8ff#	.
.	8ff#	.
[8F# [8A#	8cc#J)	.
=220	=220	=220
8F#] 8A#]	(8ccc#L	<
4F# 4An 4c#	8aan	.
.	8aa	.
[8E [8F# [8A [8cn	8ff#J)	.
=221	=221	=221
8E] 8F#] 8A] 8cL]	(8cccnL	.
8D# 8F# 8A 8BJ	8ff#	.
16D#LL	8bb	f
16B	.	.
16D#	16ff#Jk)	.
16EJJ	16r	.
=222	=222	=222
16F#LL	4r	.
16B	.	.
16F#	.	.
16G#JJ	.	.
16ALL	16dd#LL	f
16B	16bb	.
16A	16dd#	.
16G#JJ	16eeJJ	.
!!LO:LB:g=z
=223	=223	=223
16F#LL	16ff#LL	sf
16B	16bb	.
16F#	16ff#	.
16EJJ	16gg#JJ	.
16D#LL	16aaLL	sf
16B	16bb	.
16D#	16aa	.
16EJJ	16gg#JJ	.
=224	=224	=224
16F#LL	16ff#LL	sf
16B	16bb	.
16F#	16ff#	.
16G#JJ	16eeJJ	.
16ALL	16dd#LL	>
16B	16bb	.
16A	16dd#	.
16G#JJ	16eeJJ	.
=225	=225	=225
16F#LL	16ff#LL	.
16B	16bb	.
16F#	16ff#	.
16EJJ	16gg#JJ	.
16D#LL	16aaLL	.
16B	16bb	.
16D#	16aa	.
16EJJ	16gg#JJ	.
=226	=226	=226
16F#LL	16ff#LL	.
16B	16bb	.
16F#	16ff#	.
16G#JJ	16eeJJ	.
16ALL	16dd#LL	p
16B	16bb	.
16A	16dd#	.
16G#JJ	16eeJJ	.
=227	=227	=227
!	!	!LO:HP:i:t=sempre più p
16F#LL	16ff#LL	>
16B	16bb	.
16F#	16ff#	.
16EJJ	16gg#JJ	.
16D#LL	16aaLL	.
16B	16bb	.
16D#	16aa	.
16EJJ	16gg#JJ	.
!!LO:LB:g=z
=228	=228	=228
16F#LL	16ff#LL	.
16B	16bb	.
16F#	16ff#	.
16G#JJ	16eeJJ	.
16ALL	16dd#LL	.
16G#	16ee	.
16A	16dd#	.
16A#JJ	16cc#JJ	.
=229	=229	=229
!!LO:TX:a:B:t=Poco rit.
16BLL	16bLL	pp
16A#	16cc#	.
16An	16d#	.
16G#JJ	16eJJ	.
16F#LL	16f#LL	.
16BB 16D#	16a	.
(16C# 16E	16g#	.
16D# 16F#JJ	16f#JJ	.
=230	=230	=230
*^	*	*
!!LO:TX:a:B:t=a Tempo
4ryy	8E 8G#	16g#LL	p
.	.	16b	.
.	8r	16B	.
.	.	16bJJ	.
8BL	4r	16g#LL	.
.	.	16b	.
8AJ	.	16f#	.
.	.	16bJJ	.
=231	=231	=231	=231
8G#L	8BB	16eLL	.
.	.	16b	.
8F#)	8r	16d#	.
.	.	16bJJ	.
(8F#'	4r	16d#LL	.
.	.	16b	.
8G#'J)	.	16e#	.
.	.	16bJJ	.
=232	=232	=232	=232
(8AL	4BB	16f#LL	.
.	.	16b	.
8c#	.	16a	.
.	.	16bJJ	.
8B	8BBL	16g#LL>	.
.	.	16b	.
8F#J)	8AAJ	16b	.
.	.	16dd#JJ	.
*v	*v	*	*
!!LO:LB:g=z
=233	=233	=233
8GG#\ 8G#\	16bLL	.
.	16ee	.
8r	16b	.
.	16ff#JJ	.
4r	16bLL	.
.	16ff##	.
.	16b	.
.	16gg#JJ	.
=234	=234	=234
*	*^	*
16ELL	(4gg#	16bLL	.
16e	.	16ee	.
16E	.	16b	.
16eJJ	.	16eeJJ	.
16C#LL	8bbL	16eeLL	.
16c#	.	16a	.
16AA	8aaJ	16cc#	.
16AJJ	.	16eeJJ	.
=235	=235	=235	=235
16BBLL	8gg#L	16eeLL	.
16B	.	16b	.
16BB	8ff#J)	16dd#	.
16BJJ	.	16bJJ	.
16ALL	(8ff#'L	16dd#LL	.
16a	.	16b	.
16G#	8gg#'J)	16ee	.
16g#JJ	.	16bJJ	.
=236	=236	=236	=236
16F#LL	(8aaL	16ff#LL	<
16f#	.	16b	.
16E	8ccc#	16gg#	.
16eJJ	.	16bJJ	.
16D#LL	8bbJ)	16ff#LL	.
16d#	.	16bJJ	.
16BB	8ryy	8ff#' 8aa' 8ddd#'	f
16BJJ	.	.	.
*	*v	*v	*
=237	=237	=237
4E 4e	16ee' 16gg#' 16eee'	p
.	(16eeLL	.
.	16b	.
.	16g#JJ	.
8r	16bLL<	.
.	16g#	.
8D# (8B	16f#	.
.	16dd#JJ)	.
!!LO:LB:g=z
=238	=238	=238
4C# 4A#	16f#LL	.
.	16ee	.
.	16cc#	.
.	16f#JJ	.
4A# 4e	16f#LL	.
.	16ff#	.
.	16cc#	.
.	16f#JJ	.
=239	=239	=239
4B 4d#)	16f#LL	.
.	16dd#	.
.	16b	.
.	16f#JJ	.
8BB (8BL	16d#LL	.
.	16b	.
8C# 8AnJ	16e	.
.	16anJJ	.
=240	=240	=240
4Dn 4G#	16eLL	.
.	16b	.
.	16g#	.
.	16eJJ	.
4G# 4dn	16eLL	.
.	16ee	.
.	16b	.
.	16eJJ	.
=241	=241	=241
4.A 4.c#)	16eLL	.
.	16ee	.
.	16cc#	.
.	16aJJ	.
.	16eLL	.
.	16ee	<
8A (8c#	16e	.
.	16eeJJ	.
=242	=242	=242
8G# 8B#L	16eLL	.
.	16ee	.
8A 8c#J)	16e	.
.	16eeJJ	.
8C#' (8A'L	16eLL	.
.	16ee	.
8BBn' 8G#'J)	16e	.
.	16eeJJ	.
!!LO:LB:g=z
=243	=243	=243
8BB (8G#	16eLL	.
.	16ee	.
4AA#\ 4F#\)	16e	.
.	16eeJJ	.
.	16eLL	.
.	16ee	.
8AA#\ 8F#\	16e	.
.	16eeJJ	.
=244	=244	=244
*^	*	*
(<8F#L	2BB	16d#LL	p
.	.	16dd#	.
8B	.	16b	.
.	.	16f#JJ	.
8A#	.	16f#LL>	.
.	.	16ff#	.
8BJ)	.	16dd#	.
.	.	16aJJ	.
*v	*v	*	*
=245	=245	=245
16ELL	4g#	.
16B	.	.
16G#	.	.
16EJJ	.	.
16D#LL	8r	.
16B	.	.
16F#	8b (8bb	.
16D#JJ	.	.
=246	=246	=246
*ped	*	*
16C#LL	4a# 4aa#	.
16A#	.	.
16F#	.	.
16C#JJ	.	.
16FF#LL	4ee 4eee	.
16A#	.	.
16F#	.	.
*Xped	*	*
16C#JJ	.	.
=247	=247	=247
16BBLL	4.dd# 4.ddd#)	.
16B	.	.
16F#	.	.
16D#JJ	.	.
16BBLL	.	.
16B	.	.
16C#	8an (8aan	.
16AnJJ	.	.
!!LO:LB:g=z
=248	=248	=248
*ped	*	*
16BBLL	4g# 4gg#	.
16G#	.	.
16E	.	.
16BBJJ	.	.
16EELL<	4ddn 4dddn	.
16G#	.	.
16E	.	.
*Xped	*	*
16BBJJ	.	.
=249	=249	=249
16AALL	4.cc# 4.ccc#)	.
16A	.	.
16E	.	.
16C#JJ	.	.
16AALL<	.	.
16E	.	.
16AA	8cc# (8ccc#	.
16EJJ	.	.
=250	=250	=250
16GG#LL<	8b# 8bb#L	<
16E	.	.
16AA	8cc# 8ccc#J)	.
16EJJ	.	.
16AA 16C#LL	8a' (8aa'L	.
16E	.	.
16BB 16E	8g#' 8gg#'J)	.
16G#JJ	.	.
=251	=251	=251
16C# 16ELL	8g# (8gg#	.
16A#	.	.
16C# 16E	4f# 4ff#)	.
16A#JJ	.	.
16Cn 16ELL	.	.
16An	.	.
16C 16E	8f# 8ff#	.
16AJJ	.	.
=252	=252	=252
16BBLL	8f# (8ff#L	p
16D# 16F# 16A	.	.
16BB	8b 8bb	.
16D# 16F# 16AJJ	.	.
16BBLL	8a# 8aa#	.
16D# 16F# 16A	.	.
16BB	8b 8bbJ)	.
16D# 16F# 16AJJ	.	.
!!LO:LB:g=z
=253	=253	=253
16BBLL	8e (8eeL	.
16E 16G#	.	.
16BB	8b 8bb	.
16E 16G#JJ	.	.
16BBLL	8a# 8aa#	.
16E 16G#	.	.
16BB	8b 8bbJ)	.
16E 16G#JJ	.	.
=254	=254	=254
*^	*	*
!	!	!LO:TX:a:i:t=legato	!
(8F#L	2BB 2F#	16r	.
.	.	16dd#LL	.
8B	.	16bb	.
.	.	16aaJJ	.
8A#	.	16ff#LL	.
.	.	16dd#	.
8BJ)	.	16b	.
.	.	16anJJ	.
=255	=255	=255	=255
(8EL	2BB 2E	16r	.
.	.	16g#LL	.
8B	.	16bb	.
.	.	16gg#JJ	.
8A#	.	16eeLL	.
.	.	16b	.
8BJ)	.	16an	.
.	.	16g#JJ	.
*v	*v	*	*
=256	=256	=256
16BBLL	8f# (8ff#L	<
16D# 16F# 16A	.	.
16BB	8b 8bb	.
16D# 16F# 16AJJ	.	.
16BBLL	8a# 8aa#	.
16D# 16F# 16A	.	.
16BB	8b 8bbJ)	.
16D# 16F# 16AJJ	.	.
=257	=257	=257
16BBLL<	8e# (8ee#L	.
16Dn 16E# 16G#	.	.
16BB	8ddn 8dddn	.
16D 16F# 16G#JJ	.	.
16BBLL<	8cc# 8ccc#	.
16D 16E# 16G#	.	.
16BB	8dd 8dddJ)	.
16D 16E# 16G#JJ	.	.
!!LO:LB:g=z
=258	=258	=258
16AALL<	(8ccc#L	.
16C# 16F#	.	.
16AA	8ff#	.
16C# 16F#JJ	.	.
16AALL<	8aa	.
16C# 16F#	.	.
16AA	8cc#J)	.
16C# 16F#JJ	.	.
=259	=259	=259
16AA#LL<	(8ff#L	>
16C# 16En 16F#	.	.
16AA#	8cc#	.
16C# 16E 16F#JJ	.	.
16AA#LL<	8een	.
16C# 16E 16F#	.	.
16AA#	8f#J)	.
16C# 16E 16F#JJ	.	.
=260	=260	=260
16BBLL	(8bL	.
16E 16G#	.	.
16BB	8g#	.
16E 16G#JJ	.	.
16BBLL	8b	.
16E 16G#	.	.
16BB	8eJ)	.
16E 16G#JJ	.	.
=261	=261	=261
16BBLL<	(8d#L	pp
16F#	.	.
16BB	8b	.
16D#JJ	.	.
16BBLL	8d# 8f#	.
16B	.	.
16BB	8d#) 8bJ	.
16BJJ	.	.
=262	=262	=262
4B	16r	.
.	(16dnLL	<
.	16g#	.
.	16e#JJ)	.
4A	16r	.
.	(16c#LL	.
.	16a	.
.	16f#JJ)	.
!!LO:LB:g=z
=263	=263	=263
4G# 4B	16r	.
.	16bLL	.
.	16bb	.
.	16gg#JJ	.
4F# 4A	16r	.
.	(16cc#LL	.
.	16ccc#	.
.	16aaJJ)	.
=264	=264	=264
8E# 8G#	16r	f
.	16ddnLL	.
8r	16dddn	.
.	16bbJJ	.
8E# 8G#	16r	.
.	(16cc#LL	.
8r	16ccc#	.
.	16bbJJ)	.
=265	=265	=265
*	*^	*
2r	2rff	4re	.
.	.	8re	.
!	!	!LO:TX:b:i:t=m.g.	!LO:DY:rj
.	.	(>16c#LL	p
.	.	16d#JJ	.
=266	=266	=266	=266
2A#	2rff	8enL	.
.	.	8gn	.
.	.	8f#	.
.	.	8c#J	.
=267	=267	=267	=267
[2B	8ff#L	[2d#	p
!	!LO:TX:b:i:t=dolce	!	!
.	8ccc#	.	.
.	8bb	.	.
.	8ff#J	.	.
=268	=268	=268	=268
2B]	[2aa	8d#L]	.
.	.	8f#	.
.	.	8e	.
.	.	8c#J	.
!!LO:LB:g=z
=269	=269	=269	=269
[2B	8aaL]	[2e	.
.	8aa	.	.
.	8gg#	.	.
.	8eeJ)	.	.
=270	=270	=270	=270
4.B]	[2gg#	(>8eL]	.
.	.	8e	.
.	.	8d#	.
8r	.	8BJ)	.
*	*v	*v	*
=271	=271	=271
(8d#L	8gg#L]	.
8A#	8ee (8gg#	.
8B	8dd# 8ff#	.
8d#J	8b 8dd#J	.
=272	=272	=272
*^	*	*
8BL	4rGG	8dd# 8ff#L)	.
8G#	.	8b# (8ff#	.
8A	8BB	8cc# 8ee	.
8c#J	8rGG	8a 8cc#J	.
=273	=273	=273	=273
8AL	4rGG	8cc# 8eeL)	.
8F##	.	8a# (8ee	.
8G#	8BB	8b 8dd#	.
8BJ	8rGG	8g# 8bJ	.
=274	=274	=274	=274
8G#L	4rGG	8b 8ddnL)	.
8E#	.	(8g# 8dd	.
8F#	8BBL	8a 8cc#	.
8AJ	[8BBJ	8d# 8ccnJ	.
=275	=275	=275	=275
8G#L	8BB]	8e 8bL	.
8EJ	4BB	8c#X 8bJ	<
16F#LL	.	16d# 16aLL	.
16A)	.	16f#)	.
16G#	8BB	(>16e	.
16F#JJ	.	16f#JJ	.
*v	*v	*	*
!!LO:LB:g=z
=276	=276	=276
*	*^	*
8EE 8E	4g#	16eLL	p
.	.	16B	.
8r	.	16e	.
.	.	16BJJ	.
4r	8bL	16g#LL	.
.	.	16B	.
.	8aJ	16f#	.
.	.	16BJJ	.
=277	=277	=277	=277
8BBB 8BB	8g#L	16eLL	.
.	.	16B	.
8r	8f#J)	16d#	.
.	.	16BJJ	.
4r	(8f#'L	16d#LL	.
.	.	16B	.
.	8g#'J)	16e	.
.	.	16BJJ	.
=278	=278	=278	=278
8CC# 8C#	(8aL	16eLL	.
.	.	16B	.
8r	8cc#	16e	.
.	.	16BJJ	.
8DD# 8D#L	8b	16f#LL	.
.	.	16B	.
8BBB 8BBJ	8f#J)	16d#	.
.	.	[16BJJ	.
=279	=279	=279	=279
4EE 4E	4g#	16BLL]	.
.	.	16B	.
.	.	16e	.
.	.	16BJJ	.
8r	8r	16eLL	.
.	.	16B	.
8BB	(8g#	16e	.
.	.	16BJJ	.
=280	=280	=280	=280
4C#	8aL	16eLL	>
.	.	16B	.
.	8cc#	16e	.
.	.	16BJJ	.
8D#L	8b	16f#LL	.
.	.	16B	.
8BB 8AJ	8f#J	16d#	.
.	.	16BJJ	.
*	*v	*v	*
!!LO:LB:g=z
=281	=281	=281
16E 16G#LL	4.B 4.e 4.g#)	.
16BB	.	.
16E 16G#	.	.
16BBJJ	.	.
16E 16G#LL	.	.
16BB	.	.
!!LO:TX:a:B:t=Rit.
16E# 16G#	8g# (8gg#	.
16BBJJ	.	.
=282	=282	=282
16F# 16ALL	8a 8aaL	.
16BB	.	.
16A 16c#	8cc# 8ccc#	.
16BBJJ	.	.
16G# 16BLL	8b 8bb	.
16BB	.	.
16F# 16A	8dd# 8ddd#J	.
16BBJJ	.	.
=283	=283	=283
8E 8G#	4ee 4eee)	.
(8FF#L	.	.
8EE	4r	.
8C#J	.	.
=284	=284	=284
*	*^	*
4.BB	4rdd	8rc	.
.	.	(>8AL	.
.	8r	8G#	.
16C#LL	8g#	8eJ)	.
16BBJJ	.	.	.
=285	=285	=285	=285
4AA#)	8r	[8e 8f#L	.
.	(8ff#L	8e] 8cc# 8eeJ	.
4A# 4e 4f#	8ee	4cc#	.
.	8ccc#J)	.	.
*	*v	*v	*
!!LO:LB:g=z
=286	=286	=286
!!LO:TX:a:B:t=Accel.
8B 8e 8g#	16ccc#LL	.
.	16bb	<
8r	16gg#	.
.	16eeJJ	.
8B 8f#	16dd#LL	.
.	16cc#	.
8r	16b	.
.	16aJJ	.
=287	=287	=287
8c# 8e	16g#LL<	.
.	16f#	.
8r	16e	.
.	16eeJJ	.
8A 8c#	16dd#LL	.
.	16cc#	.
8r	16ccc#	.
.	16bbJJ	.
=288	=288	=288
8F# 8A	16bbLL	.
.	16aa	.
8r	16aaa	.
.	16ggg#JJ	.
8D# 8F#	16ggg#LL	.
.	16fff#	.
8r	16aaa	.
.	16fff#JJ	.
=289	=289	=289
8B 8d#	16eeeLL	.
.	16ddd#	.
8r	16fff#	.
.	16aaJJ	.
!!LO:TX:a:B:t=a Tempo
8c# 8eL	16aaLL	p
.	16gg#	.
8c# 8eJ	16eee	.
.	16gg#JJ	.
=290	=290	=290
8AL	(16ff#LL	pp
.	16ccc#	.
8BJ	16bb	.
.	16dd#JJ)	.
8E	8ee	.
8r	8r	.
==	==	==
*-	*-	*-
!!!RDF**kern: > = above
!!!RDF**kern: < = below
!!!RDF**dynam: > = dim.
!!!ENC: Craig Stuart Sapp
!!!END: 2008/07/17/
!!!EED: Craig Stuart Sapp
!!!EEV: 2020/08/23
